icons/truefans.svg

<svg width="32" height="32" viewBox="0 0 32 32" fill="none" xmlns="http://www.w3.org/2000/svg">
<path d="M3.36667 28.6333C0.913335 26.18 0 22.18 0 16C0 9.82 0.913335 5.82 3.36667 3.36667C5.82 0.913333 9.82 0 16 0C22.18 0 26.18 0.913333 28.6333 3.36667C31.0867 5.82 32 9.82 32 16C32 22.18 31.0867 26.18 28.6333 28.6333C26.18 31.0867 22.18 32 16 32C9.82 32 5.82 31.0867 3.36667 28.6333Z" fill="white"/>
<path d="M12.1989 5.13353C13.3265 4.50284 14.5878 4.1875 15.9829 4.1875C17.378 4.1875 18.6394 4.50046 19.767 5.12637C20.8726 5.73078 21.7901 6.6284 22.4187 7.72051C23.0589 8.82423 23.379 10.0546 23.379 11.4116C23.379 12.7686 23.0589 13.999 22.4187 15.1029C21.7902 16.195 20.8727 17.0926 19.7671 17.697C18.6395 18.3229 17.3781 18.6359 15.983 18.6359C14.5879 18.6359 13.3265 18.3207 12.1989 17.6902C11.0963 17.0841 10.1815 16.1868 9.55436 15.0961C8.9189 13.9969 8.60117 12.7689 8.60117 11.4119C8.60117 10.0549 8.9189 8.82694 9.55436 7.72805C10.1815 6.63724 11.0963 5.73973 12.1989 5.13353ZM19.0647 8.24401C18.2429 7.42218 17.2157 7.01127 15.9829 7.01127C14.7502 7.01127 13.7255 7.42218 12.9086 8.24401C12.0916 9.06584 11.6831 10.1218 11.6831 11.4119C11.6831 12.702 12.0916 13.7579 12.9086 14.5797C13.7257 15.4016 14.7505 15.8125 15.9832 15.8125C17.216 15.8125 18.2432 15.4016 19.065 14.5797C19.8868 13.7579 20.2977 12.702 20.2977 11.4119C20.2977 10.1218 19.8867 9.06584 19.0647 8.24401Z" fill="#7638F8"/>
<path d="M9.84833 27.8125L6.58725 27.8123C6.76893 26.7575 7.13585 25.7432 7.67106 24.8164C8.073 24.1182 8.56767 23.4777 9.14157 22.9124C9.72377 22.3448 10.3789 21.8571 11.0897 21.4623C11.8179 21.0555 12.5967 20.7471 13.406 20.5451C15.0989 20.1382 16.864 20.1375 18.5573 20.5428C19.366 20.7431 20.1448 21.0491 20.8735 21.453C21.5852 21.8455 22.2411 22.3316 22.8237 22.8984C23.4002 23.4649 23.8973 24.107 24.3013 24.807C24.84 25.7363 25.2097 26.7537 25.3935 27.812H22.132C21.9945 27.316 21.794 26.8395 21.5357 26.3943C20.9924 25.4531 20.2012 24.6792 19.2483 24.1567C18.2803 23.6194 17.1821 23.3469 15.9847 23.3469C14.7873 23.3469 13.6889 23.6214 12.7207 24.1629C11.7705 24.687 10.9817 25.4611 10.4399 26.4014C10.1834 26.8446 9.9846 27.3187 9.84833 27.8123V27.8125Z" fill="#7638F8"/>
</svg>

<svg xmlns="http://www.w3.org/2000/svg" width="32" height="32" fill="none" viewBox="0 0 32 32">
  <path fill="#fff" d="M3.367 28.633C.913 26.18 0 22.18 0 16 0 9.82.913 5.82 3.367 3.367 5.82.913 9.82 0 16 0c6.18 0 10.18.913 12.633 3.367C31.087 5.82 32 9.82 32 16c0 6.18-.913 10.18-3.367 12.633C26.18 31.087 22.18 32 16 32c-6.18 0-10.18-.913-12.633-3.367Z"/>
  <path fill="#7638F8" d="M12.199 5.134c1.127-.631 2.389-.947 3.784-.947s2.656.313 3.784.94a6.851 6.851 0 0 1 2.652 2.594c.64 1.103.96 2.334.96 3.69 0 1.358-.32 2.588-.96 3.692a6.851 6.851 0 0 1-2.652 2.594c-1.127.626-2.389.939-3.784.939s-2.656-.315-3.784-.946a6.866 6.866 0 0 1-2.645-2.594c-.635-1.1-.953-2.327-.953-3.684 0-1.357.318-2.585.953-3.684A6.866 6.866 0 0 1 12.2 5.134Zm6.866 3.11c-.822-.822-1.85-1.233-3.082-1.233-1.233 0-2.258.411-3.074 1.233-.817.822-1.226 1.878-1.226 3.168 0 1.29.409 2.346 1.226 3.168.817.822 1.841 1.232 3.074 1.232 1.233 0 2.26-.41 3.082-1.232.822-.822 1.233-1.878 1.233-3.168 0-1.29-.411-2.346-1.233-3.168ZM9.848 27.812h-3.26a9.07 9.07 0 0 1 2.554-4.9 9.162 9.162 0 0 1 1.948-1.45 9.429 9.429 0 0 1 2.316-.917 11.042 11.042 0 0 1 5.151-.002c.809.2 1.588.506 2.317.91a9.103 9.103 0 0 1 1.95 1.445 9.093 9.093 0 0 1 2.57 4.914h-3.262a6.04 6.04 0 0 0-.596-1.418 5.937 5.937 0 0 0-2.288-2.237c-.968-.538-2.066-.81-3.263-.81-1.198 0-2.296.274-3.264.816A5.948 5.948 0 0 0 10.44 26.4a6.01 6.01 0 0 0-.592 1.411Z"/>
</svg>
